X: 66
T: Msza Święta - Kyrie
C: Józef Stefani
%%abc-version 2.0
%%abcx-abcm2ps-target-version 5.9.1 (29 Sep 2008)
%%abc-creator hum2abc beta
%%abcx-conversion-date 2021/10/04 07:38:40
%%abc-edited-by Katarzyna Serwa
%%abc-edited-by Marta Lawrence
%%abcx-initial-encoding-date 2021-08-16
%%humdrum-veritas 3081121451
%%humdrum-veritas-data 134263295
%%linebreak <none>
%%barnumbers 0
L: 1/4
M: C|
N: Derived from pl-kozmzk--mzk-m-26--001_stefani-jozef-msza-swieta-kyrie.krn
Q: "Allo Moderato."
V: 1 clef=tenor
V: 2 clef=tenor
V: 3 clef=bass
V: 4 clef=treble
V: 5 clef=bass
K: Bb
[V:1] z4 | 
[V:2] z4 | 
[V:3] z4 | 
[V:4] [F2A,2][G2B,2] | 
[V:5] [F,2F,,2][E,2E,,2] | 
[V:1] z4 | 
[V:2] z4 | 
[V:3] z4 | 
[V:4] [F2A,2][G2B,2] | 
[V:5] [F,2F,,2][E,2E,,2] | 
[V:1] z4 | 
[V:2] z4 | 
[V:3] z4 | 
[V:4] F2_E2 & A,4 | 
[V:5] [F,2F,,2][^F,2^F,,2] | 
[V:1] z4 | 
[V:2] z4 | 
[V:3] z4 | 
[V:4] [DB,][BGD][A^FDC][GDB,] | 
[V:5] [G,G,,][G,,G,,,][A,,A,,,][B,,B,,,] | 
[V:1] z4 | 
[V:2] z4 | 
[V:3] z4 | 
[V:4] [F4C4A,4] | 
[V:5] [C,4C,,4] | 
[V:1] z4 | 
[V:2] z4 | 
[V:3] z4 | 
[V:4] F2=E2 & [B,4G,4] | 
[V:5] [C,4C,,4] | 
[V:1] z4 | 
[V:2] z4 | 
[V:3] z4 | 
[V:4] [F2A,2][F2A,2] | 
[V:5] [F,2F,,2][F,2F,,2] | 
[V:1] z2zF, | 
[V:2] z4 | 
[V:3] z4 | 
[V:4] [G2B,2][A2F2E2C2] | 
[V:5] [E,2E,,2][C,2C,,2] | 
[V:1] !accent!B,2!accent!C2 | 
[V:2] z2zF, | 
[V:3] z4 | 
[V:4] [B2D2]c2 & x2FA | 
[V:5] B,,B,A,F, | 
[V:1] !accent!D2EC | 
[V:2] !accent!B,2CA, | 
[V:3] z2zF, | 
[V:4] d2[ec][cA] & B2x2 | 
[V:5] B,,B,E,F, | 
[V:1] D2CB, | 
[V:2] B,2A,G, | 
[V:3] B,,B,F,G, | 
[V:4] [d2B2][cA][BG] | 
[V:5] B,,B,F,G, | 
[V:1] C3z | 
[V:2] A,3F, | 
[V:3] F,3z | 
[V:4] [c3A3]z | 
[V:5] F,3F, & x3z | 
[V:1] z2zF, | 
[V:2] !accent!F2EE | 
[V:3] z4 | 
[V:4] z2zF | 
[V:5] F2E2 & z4 | 
[V:1] !accent!F2!accent!E2 | 
[V:2] D2C2 | 
[V:3] z2zF, | 
[V:4] f2e2 & F3c | 
[V:5] D2C2 & z2zF, | 
[V:1] !accent!D2EC | 
[V:2] B,3C | 
[V:3] B,,B,G,A, | 
[V:4] [d2B2F2][eBE][cF] | 
[V:5] B,,B,G,A, | 
[V:1] D2Dz | 
[V:2] B,2B,z | 
[V:3] B,2B,B,, | 
[V:4] [d3B3F3]z | 
[V:5] B,3B,, | 
[V:1] z2zF | 
[V:2] z4 | 
[V:3] !accent!B,2!accent!A,2 | 
[V:4] z2z[fF] | 
[V:5] B,2A,2 | 
[V:1] !accent!E2!accent!D2 | 
[V:2] z2zB, | 
[V:3] G,2F,2 | 
[V:4] [e2E2]d2 & x2DB | 
[V:5] G,2F,2 | 
[V:1] !accent!G2!accent!F2 | 
[V:2] B,2B,2 | 
[V:3] E,2D,2 | 
[V:4] g2f2 & B4 | 
[V:5] E,ED,D | 
[V:1] FEDC | 
[V:2] G,A,B,B, | 
[V:3] C,2B,,E, | 
[V:4] fedc & GAB2 | 
[V:5] C,CB,,E, | 
[V:1] D2D2 | 
[V:2] B,2B,2 | 
[V:3] F,2^F,2 | 
[V:4] d4 & B4 | 
[V:5] F,2^F,2 | 
[V:1] D2FE | 
[V:2] B,2G,2 | 
[V:3] G,2C,2 | 
[V:4] [d2B2]fe & x2G2 | 
[V:5] G,2C,2 | 
[V:1] D2C2 | 
[V:2] B,3A, | 
[V:3] F,4 | 
[V:4] d2c2 & B3A | 
[V:5] F,2-[F,2F,,2] | 
[V:1] B,2zA,/B,/ | 
[V:2] B,2zA,/G,/ | 
[V:3] [B,2B,,2]zF, | 
[V:4] B/F/D/F/ B/F/[A/F/][B/G/] | 
[V:5] B,,/D,/F,/D,/ B,,/D,/F,,/F,/ | 
[V:1] C>=B,CF | 
[V:2] A,>^G,A,A, | 
[V:3] F,2F,F, | 
[V:4] [cA]>[=B^G]cf & x2A2 | 
[V:5] F,,/F,/F,,/F,/ F,,/F,/F,,/F,/ | 
[V:1] F2=EG,/A,/ | 
[V:2] G,2G,=E,/F,/ | 
[V:3] C,2C,C, | 
[V:4] f2=e[G/=E/][A/F/] & [B3G3]x | 
[V:5] C,,/C,/C,,/C,/ C,,/C,/C,,/C,/ | 
[V:1] B,>A,B,D | 
[V:2] G,>^F,G,B, | 
[V:3] C,>C,C,C, | 
[V:4] [BG]>[A^F][BG][dB] | 
[V:5] C,,/C,/C,,/C,/ C,,/C,/C,,/C,/ | 
[V:1] !accent!=B,>CA,A,/^C/ | 
[V:2] ^G,>A,F,F,/G,/ | 
[V:3] !accent!F,2F,F,/=E,/ | 
[V:4] [=BG]>[cA][AF][A/F/][^c/A/] | 
[V:5] F,,/F,/F,,/F,/ F,,/F,=E,/ | 
[V:1] D>=EFD | 
[V:2] F,>A,A,A, | 
[V:3] D,>^C,D,F, | 
[V:4] [dF]>[=eA]fd & x2A2 | 
[V:5] D,>^C,D,F, | 
[V:1] B,=B,C3/_B,/ | 
[V:2] G,2G,3/G,/ | 
[V:3] G,F,=E,3/E,/ | 
[V:4] B=Bc3/_B/ & G4 | 
[V:5] G,F,=E,2 | 
[V:1] A,>FD=E | 
[V:2] F,>A,B,G, | 
[V:3] F,>D,B,,C, | 
[V:4] [AF]>[fA][dB][=eG] | 
[V:5] F,>D,B,,C, | 
[V:1] G2Fz | 
[V:2] B,2A,z | 
[V:3] F,2E,z | 
[V:4] [g2B2][fA]F- | 
[V:5] F,,/F,/F,,/F,/[F,F,,]F,- | 
[V:1] z2zF, | 
[V:2] z4 | 
[V:3] z4 | 
[V:4] F[FA,][GB,][AFEC] | 
[V:5] F,F,E,C, | 
[V:1] B,2C2 | 
[V:2] z2zF, | 
[V:3] z4 | 
[V:4] [B2D2]c2 & x2FA | 
[V:5] B,,B,A,F, | 
[V:1] D2EC | 
[V:2] B,2CA, | 
[V:3] z2zF, | 
[V:4] [d2B2][ec][cA] | 
[V:5] B,,B,E,F, | 
[V:1] D2CB, | 
[V:2] B,2A,G, | 
[V:3] B,,B,F,G, | 
[V:4] [d2B2][cA][BG] | 
[V:5] B,,B,F,G, | 
[V:1] C3z | 
[V:2] A,3F, | 
[V:3] F,3z | 
[V:4] c3z & A3x | 
[V:5] F,F,,F,F, & x2xz | 
[V:1] z2zF, | 
[V:2] F2EE | 
[V:3] z4 | 
[V:4] z2zF- | 
[V:5] F2E2 & z4 | 
[V:1] F2E2 | 
[V:2] D2C2 | 
[V:3] z2zF, | 
[V:4] f2e2 & F3c | 
[V:5] D2C2 & z2zF, | 
[V:1] D2EC | 
[V:2] B,3C | 
[V:3] B,,B,G,A, | 
[V:4] [d2B2F2][eBE][cF] | 
[V:5] B,,B,G,A, | 
[V:1] D2Dz | 
[V:2] B,2B,z | 
[V:3] B,2B,B,, | 
[V:4] [d3B3F3]z | 
[V:5] B,B,,B,B,, | 
[V:1] z2zF | 
[V:2] z4 | 
[V:3] B,2A,2 | 
[V:4] z2z[fF] | 
[V:5] B,2A,2 | 
[V:1] E2D2 | 
[V:2] z2zB, | 
[V:3] G,2F,2 | 
[V:4] [e2E2]d2 & x2DB | 
[V:5] G,2F,2 | 
[V:1] G2F2 | 
[V:2] B,2B,2 | 
[V:3] E,2D,2 | 
[V:4] g2f2 & B4 | 
[V:5] E,ED,D | 
[V:1] FEDC | 
[V:2] G,A,B,B, | 
[V:3] C,2B,,E, | 
[V:4] fedc & GAB2 | 
[V:5] C,CB,,E, | 
[V:1] D2D2 | 
[V:2] B,2B,2 | 
[V:3] F,2^F,2 | 
[V:4] d4 & B4 | 
[V:5] F,F,,^F,^F,, | 
[V:1] D2FE | 
[V:2] B,2G,2 | 
[V:3] G,2C,2 | 
[V:4] [d2B2]fe & x2G2 | 
[V:5] G,G,,C,2 | 
[V:1] D2C2 | 
[V:2] B,3A, | 
[V:3] F,4 | 
[V:4] d2c2 & B3A | 
[V:5] F,F,,F,F,, | 
[V:1] B,zz2 | 
[V:2] B,zz2 | 
[V:3] B,,zz2 | 
[V:4] Bdgf & x2[d2G2-] | 
[V:5] B,,B,=B,2 | 
[V:1] x4 | 
[V:2] x4 | 
[V:3] x4 | 
[V:4] e2fe & G_GF2 | 
[V:5] C_B,A,2 | 
[V:1] x4 | 
[V:2] x4 | 
[V:3] x4 | 
[V:4] d2fe & B2G2 | 
[V:5] B,[B,G,]C,2 | 
[V:1] x4 | 
[V:2] x4 | 
[V:3] x4 | 
[V:4] d2c2 & A3A | 
[V:5] F,2[F,2F,,2] | 
[V:1] x4 |]  
[V:2] x4 |]  
[V:3] x4 |]  
[V:4] !fermata!B4 |]  
[V:5] !fermata!B,,4 |]  


